packages/ui-icons/svg/Solid/exit-full-screen.svg

<svg viewBox="0 0 1920 1920" version="1.1" xmlns="http://www.w3.org/2000/svg">
    <path d="M884.311012,1035.68899 L884.311012,1732.00676 L675.185528,1732.00676 L675.185528,1392.84477 L147.92568,1920 L0,1772.07432 L527.259849,1244.91909 L187.888629,1244.91909 L187.888629,1035.68899 L884.311012,1035.68899 Z M1772.11617,0 L1920.04185,147.92568 L1392.88661,675.080913 L1732.0486,675.080913 L1732.0486,884.415627 L1035.62622,884.415627 L1035.62622,187.888629 L1244.96093,187.888629 L1244.96093,527.155233 L1772.11617,0 Z" stroke="none" stroke-width="1" fill-rule="evenodd"/>
</svg>

<svg viewBox="0 0 1920 1920" version="1.1" xmlns="http://www.w3.org/2000/svg">
    <path d="M1772.116 0l147.926 147.926-527.155 527.155h339.162v209.335h-696.423V187.889h209.335v339.266L1772.116 0zM187.89 1035.689H884.31v696.318H675.186v-339.162L147.926 1920 0 1772.074l527.26-527.155H187.889v-209.23z" stroke="none" stroke-width="1" fill-rule="evenodd"/>
</svg>
